public/assets/icon_tools.svg

<svg fill="none" height="14" viewBox="0 0 12 14" width="12" xmlns="http://www.w3.org/2000/svg"><path clip-rule="evenodd" d="m2.66675.358293c.74455-.2982099 1.55832-.3795049 2.34714-.234478.78883.145026 1.52047.510446 2.11026 1.053975.58979.54353 1.01363 1.24295 1.22246 2.01733.20884.77438.19414 1.59207-.04239 2.35844l2.66528 2.25523c.2401.20402.4353.45557.5733.73879s.2159.59197.2286.90677c.0128.31481-.0398.62885-.1545.92235-.1146.2934-.2888.5599-.5116.7827s-.4893.397-.7828.5117c-.2934.1146-.60747.1672-.92227.1545-.31481-.0128-.62355-.0907-.90677-.2287s-.53477-.3332-.7388-.5733l-2.25462-2.66526c-.76644.23662-1.58422.25135-2.35869.04249-.77447-.20885-1.47396-.63275-2.01752-1.22263-.543553-.58989-.908953-1.32164-1.0539057-2.11057-.1449523-.78893-.06352985-1.60278.2348437-2.34735.217152-.54228.897722-.61082 1.251352-.22625l1.94285 2.10965.8771-.1747.1759-.87892-2.11086-1.93981c-.38457-.35363-.31724-1.034805.22564-1.251957zm1.21739.931687 1.67595 1.54069c.19532.17955.28266.44765.2305.70666l-.28509 1.42786c-.02937.14695-.10163.28189-.20764.3878-.10602.10591-.24104.17802-.38801.20725l-1.42544.28326c-.12758.02537-.25953.01749-.38318-.02287-.12365-.04037-.23484-.11187-.32287-.20762l-1.54311-1.67535c-.06282.52174.01096 1.05085.2141 1.5355.20314.48466.52868.90824.94473 1.22927.41605.32102.90835.52848 1.42868.60206.52032.07358 1.05084.01075 1.53959-.18234.14827-.05854.31114-.06926.4658-.03064.15467.03861.29339.12461.39674.24598l2.45661 2.90301c.09528.1131.213.2051.3457.2703s.2775.1021.42521.1084.29512-.0182.43289-.0719c.1378-.0536.2629-.1353.3674-.2398.1046-.1046.1863-.2297.2399-.36747.0537-.13776.0781-.28517.0718-.43289-.0063-.14771-.0432-.2925-.1083-.42521-.0652-.1327-.1572-.25042-.2703-.34569l-2.90244-2.45661c-.12136-.10336-.20737-.24208-.24598-.39674-.03861-.15467-.0279-.31753.03065-.4658.19346-.48875.25657-1.01938.18315-1.53987s-.28086-1.01296-.60196-1.42911c-.32111-.41616-.74487-.74172-1.22972-.94475-.48485-.20302-1.01414-.27655-1.53597-.21338z" fill="#fff" fill-rule="evenodd"/></svg>

<svg width="12" height="14" viewBox="0 0 12 14" fill="none" xmlns="http://www.w3.org/2000/svg">
<path fill-rule="evenodd" clip-rule="evenodd" d="M2.66675 0.358293C3.4113 0.0600831 4.22507 -0.0212119 5.01389 0.123815C5.80272 0.268841 6.53436 0.634261 7.12415 1.17779C7.71394 1.72132 8.13778 2.42074 8.34661 3.19512C8.55545 3.9695 8.54075 4.78719 8.30422 5.55356L10.9695 7.80879C11.2096 8.01281 11.4048 8.26436 11.5428 8.54758C11.6808 8.8308 11.7587 9.13955 11.7714 9.45435C11.7842 9.76916 11.7316 10.0832 11.6169 10.3767C11.5023 10.6701 11.3281 10.9366 11.1053 11.1594C10.8825 11.3822 10.616 11.5564 10.3225 11.6711C10.0291 11.7857 9.71503 11.8383 9.40023 11.8256C9.08542 11.8128 8.77668 11.7349 8.49346 11.5969C8.21024 11.4589 7.95869 11.2637 7.75466 11.0236L5.50004 8.35834C4.7336 8.59496 3.91582 8.60969 3.14135 8.40083C2.36688 8.19198 1.66739 7.76808 1.12383 7.1782C0.580277 6.58831 0.214877 5.85656 0.0699243 5.06763C-0.075028 4.2787 0.00639445 3.46485 0.304768 2.72028C0.52192 2.178 1.20249 2.10946 1.55612 2.49403L3.49897 4.60368L4.37607 4.42898L4.55197 3.55006L2.44111 1.61025C2.05654 1.25662 2.12387 0.575445 2.66675 0.358293ZM3.88414 1.28998L5.56009 2.83067C5.75541 3.01022 5.84275 3.27832 5.79059 3.53733L5.5055 4.96519C5.47613 5.11214 5.40387 5.24708 5.29786 5.35299C5.19184 5.4589 5.05682 5.53101 4.90985 5.56024L3.48441 5.8435C3.35683 5.86887 3.22488 5.86099 3.10123 5.82063C2.97758 5.78026 2.86639 5.70876 2.77836 5.61301L1.23525 3.93766C1.17243 4.4594 1.24621 4.98851 1.44935 5.47316C1.65249 5.95782 1.97803 6.3814 2.39408 6.70243C2.81013 7.02345 3.30243 7.23091 3.82276 7.30449C4.34308 7.37807 4.8736 7.31524 5.36235 7.12215C5.51062 7.06361 5.67349 7.05289 5.82815 7.09151C5.98282 7.13012 6.12154 7.21612 6.22489 7.33749L8.6815 10.2405C8.77678 10.3536 8.8945 10.4456 9.0272 10.5108C9.1599 10.576 9.3047 10.6129 9.45241 10.6192C9.60012 10.6255 9.74753 10.601 9.8853 10.5473C10.0231 10.4937 10.1482 10.412 10.2527 10.3075C10.3573 10.2029 10.439 10.0778 10.4926 9.94003C10.5463 9.80227 10.5707 9.65486 10.5644 9.50714C10.5581 9.35943 10.5212 9.21464 10.4561 9.08193C10.3909 8.94923 10.2989 8.83151 10.1858 8.73624L7.28336 6.27963C7.162 6.17627 7.07599 6.03755 7.03738 5.88289C6.99877 5.72822 7.00948 5.56536 7.06803 5.41709C7.26149 4.92834 7.3246 4.39771 7.25118 3.87722C7.17776 3.35673 6.97032 2.86426 6.64922 2.44811C6.32811 2.03195 5.90435 1.70639 5.4195 1.50336C4.93465 1.30034 4.40536 1.22681 3.88353 1.28998H3.88414Z" fill="white"/>
</svg>
